Icons/CCSS.svg

<svg viewBox="0 0 24 24" xmlns="http://www.w3.org/2000/svg">
  <path d="M14.6 16.6l4.6-4.6-4.6-4.6L16 6l6 6-6 6-1.4-1.4m-5.2 0L4.8 12l4.6-4.6L8 6l-6 6 6 6 1.4-1.4z"/>
</svg>

<svg viewBox="0 0 24 24" version="1.1" xmlns="http://www.w3.org/2000/svg" >
    <path d="M14.6,16.6L19.2,12L14.6,7.4L16,6L22,12L16,18L14.6,16.6M9.4,16.6L4.8,12L9.4,7.4L8,6L2,12L8,18L9.4,16.6Z" />
</svg>
